styles/1/Numix/64/places/yellow-folder-cloud.svg

<?xml version="1.0" encoding="UTF-8" standalone="no"?>
<!-- Created with Inkscape (http://www.inkscape.org/) -->

<svg
   xmlns:dc="http://purl.org/dc/elements/1.1/"
   xmlns:cc="http://creativecommons.org/ns#"
   xmlns:rdf="http://www.w3.org/1999/02/22-rdf-syntax-ns#"
   xmlns:svg="http://www.w3.org/2000/svg"
   xmlns="http://www.w3.org/2000/svg"
   xmlns:sodipodi="http://sodipodi.sourceforge.net/DTD/sodipodi-0.dtd"
   xmlns:inkscape="http://www.inkscape.org/namespaces/inkscape"
   width="64"
   height="64"
   id="svg2"
   version="1.1"
   inkscape:version="0.91 r"
   sodipodi:docname="yellow-folder-cloud.svg"
   inkscape:export-filename="/media/Data/Main/Visuals/Icons/Numix/Desktop/repos/numix-wiki/Gjorgi/Numix-folders/48/New/folder-144.png"
   inkscape:export-xdpi="270"
   inkscape:export-ydpi="270">
  <defs
     id="defs4" />
  <sodipodi:namedview
     id="base"
     pagecolor="#ffffff"
     bordercolor="#666666"
     borderopacity="1.0"
     inkscape:pageopacity="0.0"
     inkscape:pageshadow="2"
     inkscape:zoom="10.551073"
     inkscape:cx="36.146923"
     inkscape:cy="17.583328"
     inkscape:document-units="px"
     inkscape:current-layer="layer1"
     showgrid="true"
     inkscape:window-width="1280"
     inkscape:window-height="998"
     inkscape:window-x="0"
     inkscape:window-y="0"
     inkscape:window-maximized="1"
     showguides="true"
     inkscape:guide-bbox="true">
    <inkscape:grid
       type="xygrid"
       id="grid2985"
       empspacing="5"
       visible="true"
       enabled="true"
       snapvisiblegridlinesonly="true" />
  </sodipodi:namedview>
  <metadata
     id="metadata7">
    <rdf:RDF>
      <cc:Work
         rdf:about="">
        <dc:format>image/svg+xml</dc:format>
        <dc:type
           rdf:resource="http://purl.org/dc/dcmitype/StillImage" />
        <dc:title />
      </cc:Work>
    </rdf:RDF>
  </metadata>
  <g
     inkscape:label="Layer 1"
     inkscape:groupmode="layer"
     id="layer1"
     transform="translate(0,-988.3622)">
    <path
       style="font-size:medium;font-style:normal;font-variant:normal;font-weight:normal;font-stretch:normal;text-indent:0;text-align:start;text-decoration:none;line-height:normal;letter-spacing:normal;word-spacing:normal;text-transform:none;direction:ltr;block-progression:tb;writing-mode:lr-tb;text-anchor:start;baseline-shift:baseline;color:#000000;fill:#ffca28;fill-opacity:1;fill-rule:nonzero;stroke:none;stroke-width:2.28612947;marker:none;visibility:visible;display:inline;overflow:visible;enable-background:accumulate;font-family:Sans;-inkscape-font-specification:Sans"
       d="M 6.0625 10 C 4.933085 10.1109 3.981588 11.17777 4 12.3125 L 4 51.6875 C 3.986 52.9021 5.097925 54.0139 6.3125 54 L 57.6875 54 C 58.902076 54.014 60.013966 52.9021 60 51.6875 L 60 16.3125 C 60.014 15.0979 58.902076 13.9861 57.6875 14 L 38 14 L 38 12.3125 C 38.01375 11.11867 36.943717 10.019 35.75 10 L 6.3125 10 C 6.22925 10 6.14575 9.9999 6.0625 10 z M 29 24 A 7 6.9999592 0 0 1 34.46875 26.6875 A 4.9999998 4.9999958 0 0 1 37 26 A 4.9999998 4.9999958 0 0 1 42 31 A 4.9999998 4.9999958 0 0 1 41 34 L 42 34 L 42 34.09375 A 4.9999998 4.9999958 0 0 1 46 39 A 4.9999998 4.9999958 0 0 1 42 43.90625 L 42 44 L 23.34375 44 L 23 44 L 22 44 L 22 43.90625 A 4.9999998 5.0000584 0 0 1 18 39 A 4.9999998 5.0000584 0 0 1 22 34.09375 L 22 34 L 22.65625 34 A 7 6.9999592 0 0 1 22 31 A 7 6.9999592 0 0 1 29 24 z "
       transform="translate(0,988.3622)"
       id="path3912" />
  </g>
</svg>

<!-- Created with Inkscape (http://www.inkscape.org/) -->
<svg xmlns="http://www.w3.org/2000/svg" viewBox="0 0 64 64">
 <g transform="translate(0,-988.3622)">
  <path d="m 6.06 10 c -1.129 0.111 -2.081 1.178 -2.063 2.313 l 0 39.38 c -0.014 1.215 1.098 2.326 2.313 2.313 l 51.38 0 c 1.215 0.014 2.326 -1.098 2.313 -2.313 l 0 -35.37 c 0.014 -1.215 -1.098 -2.326 -2.313 -2.313 l -19.688 0 l 0 -1.688 c 0.014 -1.194 -1.056 -2.294 -2.25 -2.313 l -29.438 0 c -0.083 0 -0.167 0 -0.25 0 z m 22.938 14 a 7 7 0 0 1 5.469 2.688 a 5 5 0 0 1 2.531 -0.688 a 5 5 0 0 1 5 5 a 5 5 0 0 1 -1 3 l 1 0 l 0 0.094 a 5 5 0 0 1 4 4.906 a 5 5 0 0 1 -4 4.906 l 0 0.094 l -18.656 0 l -0.344 0 l -1 0 l 0 -0.094 a 5 5 0 0 1 -4 -4.906 a 5 5 0 0 1 4 -4.906 l 0 -0.094 l 0.656 0 a 7 7 0 0 1 -0.656 -3 a 7 7 0 0 1 7 -7 z" transform="translate(0,988.3622)" style="visibility:visible;fill:#ffca28;fill-opacity:1;stroke:none;display:inline;color:#000;fill-rule:nonzero"/>
 </g>
</svg>
